X:37
T: Suo ge
N: C1535
O: China, Fujian, Chongan
S: II, 605]
R: Shange. Caimi duichang]
M: 5/8
L: 1/16
K: G
d2ddd2g4 | g2edd2e4 | geege2d4 | ede2d2d2z2
ddded2g4 | g2edg2e4 | ggege2d4 | ede2d2d2z2
e2a2a2a2a2 | e2a2g2g2 | geded2d2d2 | g4e3dd2
d2g2g2g2g2 | g2edd2e4 | geded2d2d2 | g2e3dd4

